X: 402
T: Blackberry Rag
C:Ralph W. Durden
B: jims roots
M:4/4
L:1/8
Q: 1/4=100
K:C
V:1 
x e2 f2 ^f2 |: "C"geae gage | gage g2ed | "F"cdcA cdcA |
cdcA c2A_B | "G"BAGA Bcde | gega g^fed |
[1 "C"cAcd cdef | "G"g^fga g=fef :| [2 "C"c2cd cBAB | "C"c2c2 B2_B2 ||
|:"A7"AB^cA BcAB | ^cAef ^fafe | "D7"d2dd BA^FE | DE^FD EDEF |
"G"G^FGA Bde^f | g^fga g=fed | "C"cAcd cBAB | [1 c2c2 B2_B2 :|[2 c2 e2 f2 ^f2 |]
|: "D"[a2f2] [af]f [af]b [af]f | "G"[g2e2] [ge]e [ge]a [ge]e | "D"[f2d2] [fd]d [fd]g [fd]d |
"A"[c2e2] c2 [A2A2] [A2c2] | "D"[F2d2] [Fd][Fd] [Fd]c de | [d2f2] d2 B2 [A2F2] |
V:F2d2 
V:[Fd 
[Fd] [Fd]c de | [d2f2] d2 B2 [A2F2] | [F2d2] [Fd][Fd] [Fd]c de |
V:d2f2 
 d2 B2 [A2F2] | "A"a2 g2 f2 e2 | "D"[F8d8] :|
% abcbook-tune_id 6298c2454bd568d6f4b4862c


% abcbook-boost 0
% abcbook-tablature 
% abcbook-transpose 
% abcbook-lastupdated 1654178373378
% abcbook-soundfonts 
% abcbook-repeats 1


